X:17
T:Courento (6)
%%begintext
Style et ornement d'après Gabriele Ferrero
%%endtext
C:Val Varaite
O:Italie (occitane)
Z:Transcrit et/ou corrigé par Michel BELLON - 2007-01-30
Z:Pour toute observation mailto:galouvielle@free.fr
M:2/4
L:1/8
K:D
P:"mèiro"
A2 | ed ef | gf ef/e/ | d/c/B/A/ d/c/B/A/ | G2 D2 | ed ef | gf ef | ef/e/ d/c/B/A/ | G2 G2 |:
P:"balà"
B>B BB | AG GG | B>A Bc | e2d2 | [P:"virà"]g>f ed | ed cB | ed c/B/A | G2 G2 :|

%%footer $D   Galouvielle-MBe 2007 \n-- (Italie (occitane))
